svgs/solid/vector-square.svg

<svg xmlns="http://www.w3.org/2000/svg" viewBox="0 0 448 512"><!--! Font Awesome Free 6.7.2 by @fontawesome - https://fontawesome.com License - https://fontawesome.com/license/free (Icons: CC BY 4.0, Fonts: SIL OFL 1.1, Code: MIT License) Copyright 2024 Fonticons, Inc. --><path d="M368 80l32 0 0 32-32 0 0-32zM352 32c-17.7 0-32 14.3-32 32L128 64c0-17.7-14.3-32-32-32L32 32C14.3 32 0 46.3 0 64l0 64c0 17.7 14.3 32 32 32l0 192c-17.7 0-32 14.3-32 32l0 64c0 17.7 14.3 32 32 32l64 0c17.7 0 32-14.3 32-32l192 0c0 17.7 14.3 32 32 32l64 0c17.7 0 32-14.3 32-32l0-64c0-17.7-14.3-32-32-32l0-192c17.7 0 32-14.3 32-32l0-64c0-17.7-14.3-32-32-32l-64 0zM96 160c17.7 0 32-14.3 32-32l192 0c0 17.7 14.3 32 32 32l0 192c-17.7 0-32 14.3-32 32l-192 0c0-17.7-14.3-32-32-32l0-192zM48 400l32 0 0 32-32 0 0-32zm320 32l0-32 32 0 0 32-32 0zM48 112l0-32 32 0 0 32-32 0z"/></svg>

<svg xmlns="http://www.w3.org/2000/svg" viewBox="0 0 448 512"><!--! Font Awesome Free 6.5.1 by @fontawesome - https://fontawesome.com License - https://fontawesome.com/license/free (Icons: CC BY 4.0, Fonts: SIL OFL 1.1, Code: MIT License) Copyright 2023 Fonticons, Inc. --><path d="M368 80h32v32H368V80zM352 32c-17.7 0-32 14.3-32 32H128c0-17.7-14.3-32-32-32H32C14.3 32 0 46.3 0 64v64c0 17.7 14.3 32 32 32V352c-17.7 0-32 14.3-32 32v64c0 17.7 14.3 32 32 32H96c17.7 0 32-14.3 32-32H320c0 17.7 14.3 32 32 32h64c17.7 0 32-14.3 32-32V384c0-17.7-14.3-32-32-32V160c17.7 0 32-14.3 32-32V64c0-17.7-14.3-32-32-32H352zM96 160c17.7 0 32-14.3 32-32H320c0 17.7 14.3 32 32 32V352c-17.7 0-32 14.3-32 32H128c0-17.7-14.3-32-32-32V160zM48 400H80v32H48V400zm320 32V400h32v32H368zM48 112V80H80v32H48z"/></svg>
